Sweet-Rainbow/icons/zeal.svg

<?xml version="1.0" encoding="UTF-8" standalone="no"?>
<!-- Generator: Gravit.io -->

<svg
   xmlns:dc="http://purl.org/dc/elements/1.1/"
   xmlns:cc="http://creativecommons.org/ns#"
   xmlns:rdf="http://www.w3.org/1999/02/22-rdf-syntax-ns#"
   xmlns:svg="http://www.w3.org/2000/svg"
   xmlns="http://www.w3.org/2000/svg"
   xmlns:sodipodi="http://sodipodi.sourceforge.net/DTD/sodipodi-0.dtd"
   xmlns:inkscape="http://www.inkscape.org/namespaces/inkscape"
   style="isolation:isolate"
   viewBox="0 0 36 36"
   width="48"
   height="48"
   version="1.1"
   id="svg9"
   sodipodi:docname="zeal.svg"
   inkscape:version="0.92.4 (5da689c313, 2019-01-14)">
  <metadata
     id="metadata15">
    <rdf:RDF>
      <cc:Work
         rdf:about="">
        <dc:format>image/svg+xml</dc:format>
        <dc:type
           rdf:resource="http://purl.org/dc/dcmitype/StillImage" />
        <dc:title></dc:title>
      </cc:Work>
    </rdf:RDF>
  </metadata>
  <defs
     id="defs13" />
  <sodipodi:namedview
     pagecolor="#ffffff"
     bordercolor="#666666"
     borderopacity="1"
     objecttolerance="10"
     gridtolerance="10"
     guidetolerance="10"
     inkscape:pageopacity="0"
     inkscape:pageshadow="2"
     inkscape:window-width="640"
     inkscape:window-height="480"
     id="namedview11"
     showgrid="false"
     inkscape:zoom="29.365243"
     inkscape:cx="25.325443"
     inkscape:cy="32"
     inkscape:current-layer="svg9"
     units="px" />
  <linearGradient
     id="_lgradient_67"
     x1="0"
     y1="0.5"
     x2="1"
     y2="0.5"
     gradientTransform="matrix(43,0,0,44,3,2)"
     gradientUnits="userSpaceOnUse">
    <stop
       offset="0%"
       stop-opacity="1"
       style="stop-color:rgb(255,229,59)"
       id="stop2" />
    <stop
       offset="98.69565217391305%"
       stop-opacity="1"
       style="stop-color:rgb(255,0,91)"
       id="stop4" />
  </linearGradient>
  <g
     id="g826"
     transform="matrix(0.81818182,0,0,0.81818182,-2.0454546,-1.6363637)">
    <path
       id="path7"
       d="M 14,46 H 8 C 5.24,46 3,43.76 3,41 V 14 h 4 v 25 c 0,1.656 1.344,3 3,3 V 42 6 6 C 8.344,6 7,7.344 7,9 v 5 H 3 V 7 C 3,4.24 5.24,2 8,2 h 6 2 26 c 2.208,0 4,1.792 4,4 v 22 0 c 0,1.104 -0.896,2 -2,2 v 0 c -1.104,0 -2,-0.896 -2,-2 V 28 8 C 42,6.896 41.104,6 40,6 H 16 14 v 36 h 2 24 c 1.104,0 2,-0.896 2,-2 v -2 0 c 0,-1.104 0.896,-2 2,-2 v 0 c 1.104,0 2,0.896 2,2 v 0 4 c 0,2.208 -1.792,4 -4,4 H 16 Z m 6,-30.96 v -2.758 h 17 v 2.416 L 24.213,32.96 h 11.996 v 2.758 H 20.321 V 32.96 L 32.937,15.04 Z"
       style="fill:url(#_lgradient_67);fill-rule:evenodd"
       inkscape:connector-curvature="0" />
  </g>
</svg>

<?xml version="1.0" encoding="UTF-8" standalone="no"?><!-- Generator: Gravit.io --><svg xmlns="http://www.w3.org/2000/svg" xmlns:xlink="http://www.w3.org/1999/xlink" style="isolation:isolate" viewBox="0 0 48 48" width="48pt" height="48pt"><linearGradient id="_lgradient_67" x1="0" y1="0.5" x2="1" y2="0.5" gradientTransform="matrix(43,0,0,44,3,2)" gradientUnits="userSpaceOnUse"><stop offset="0%" stop-opacity="1" style="stop-color:rgb(255,229,59)"/><stop offset="98.69565217391305%" stop-opacity="1" style="stop-color:rgb(255,0,91)"/></linearGradient><path d=" M 14 46 L 8 46 C 5.24 46 3 43.76 3 41 L 3 14 L 7 14 L 7 39 C 7 40.656 8.344 42 10 42 L 10 42 L 10 6 L 10 6 C 8.344 6 7 7.344 7 9 L 7 14 L 3 14 L 3 7 C 3 4.24 5.24 2 8 2 L 14 2 L 16 2 L 42 2 C 44.208 2 46 3.792 46 6 L 46 28 L 46 28 C 46 29.104 45.104 30 44 30 L 44 30 C 42.896 30 42 29.104 42 28 L 42 28 L 42 8 C 42 6.896 41.104 6 40 6 L 16 6 L 14 6 L 14 42 L 16 42 L 40 42 C 41.104 42 42 41.104 42 40 L 42 38 L 42 38 C 42 36.896 42.896 36 44 36 L 44 36 C 45.104 36 46 36.896 46 38 L 46 38 L 46 42 C 46 44.208 44.208 46 42 46 L 16 46 L 14 46 Z  M 20 15.04 L 20 12.282 L 37 12.282 L 37 14.698 L 24.213 32.96 L 36.209 32.96 L 36.209 35.718 L 20.321 35.718 L 20.321 32.96 L 32.937 15.04 L 20 15.04 Z " fill-rule="evenodd" fill="url(#_lgradient_67)"/></svg>
